projects/vfh1/img/icons/sch-user.svg

<svg width="13" height="13" viewBox="0 0 13 13" fill="none" xmlns="http://www.w3.org/2000/svg">
<path d="M6.36935 7.94445C4.37987 7.94445 0.474609 8.88334 0.474609 10.8333V12.2778H12.2641V10.8333C12.2641 8.88334 8.35882 7.94445 6.36935 7.94445ZM6.36935 6.50001C7.15104 6.50001 7.90071 6.19564 8.45345 5.65387C9.00619 5.1121 9.31671 4.3773 9.31671 3.61112C9.31671 2.84494 9.00619 2.11014 8.45345 1.56836C7.90071 1.02659 7.15104 0.722229 6.36935 0.722229C5.58766 0.722229 4.83798 1.02659 4.28524 1.56836C3.7325 2.11014 3.42198 2.84494 3.42198 3.61112C3.42198 4.3773 3.7325 5.1121 4.28524 5.65387C4.83798 6.19564 5.58766 6.50001 6.36935 6.50001Z" fill="#42474D"/>
</svg>

<svg width="13" height="13" fill="none" xmlns="http://www.w3.org/2000/svg"><path d="M6.37 7.944c-1.99 0-5.895.94-5.895 2.89v1.444h11.79v-1.445c0-1.95-3.906-2.889-5.896-2.889zm0-1.444c.781 0 1.53-.304 2.083-.846a2.86 2.86 0 00.864-2.043 2.86 2.86 0 00-.864-2.043A2.978 2.978 0 006.37.722c-.781 0-1.531.305-2.084.846a2.86 2.86 0 00-.863 2.043c0 .766.31 1.501.863 2.043A2.978 2.978 0 006.37 6.5z" fill="#42474D"/></svg>
